X: 41894
T: Vrikkjaren
R: barndance
M: 4/4
K: Emajor
|:e2 eg b2 bg|agfe g2 e2|c3 e g2 g2|fedc B2 (3Bcd|eBeg b2 bg|agfe g2 eg|agfa gfeg|fedf e2 Bd:|
|:e2 ec A3 e-|edcB G3 G|AGFE =D3 E-|EGF=D E2 GB|e2 ec A3 e-|edcB G3 G|AGFE Bc=dc|1 BAGF E2 GB:|2 BAGF E4||

